components/Common/Svg/svgs/travel.svg

<svg
  width="90"
  height="90"
  viewBox="0 0 90 90"
  fill="none"
  xmlns="http://www.w3.org/2000/svg"
>
  <circle
    opacity="0.5"
    cx="45"
    cy="45"
    r="45"
    fill="#FFE603"
  ></circle>
  <path
    d="M42.5013 32.5V40.2783C42.5016 40.4483 42.4587 40.6155 42.3764 40.7642C42.2942 40.913 42.1754 41.0383 42.0313 41.1283L29.638 48.8733C29.4943 48.9631 29.3759 49.0879 29.2936 49.236C29.2114 49.3841 29.1682 49.5506 29.168 49.72V51.22C29.168 51.372 29.2026 51.5221 29.2693 51.6587C29.336 51.7953 29.433 51.915 29.5529 52.0085C29.6727 52.102 29.8124 52.167 29.9611 52.1984C30.1099 52.2299 30.2638 52.227 30.4113 52.19L41.258 49.4767C41.4054 49.4397 41.5594 49.4368 41.7082 49.4682C41.8569 49.4997 41.9965 49.5646 42.1164 49.6582C42.2363 49.7517 42.3333 49.8713 42.4 50.0079C42.4666 50.1446 42.5013 50.2946 42.5013 50.4467V55.38C42.5012 55.5224 42.4706 55.6631 42.4117 55.7927C42.3527 55.9224 42.2668 56.0379 42.1596 56.1317L38.5596 59.2817C37.7963 59.9517 38.398 61.2 39.3963 61.0183L44.823 60.0333C44.9409 60.012 45.0617 60.012 45.1796 60.0333L50.6063 61.0183C51.6046 61.2017 52.2063 59.9517 51.443 59.2833L47.843 56.1333C47.7356 56.0394 47.6495 55.9236 47.5906 55.7937C47.5317 55.6637 47.5012 55.5227 47.5013 55.38V50.4467C47.5014 50.2948 47.536 50.145 47.6026 50.0085C47.6692 49.872 47.766 49.7525 47.8857 49.659C48.0054 49.5655 48.1447 49.5005 48.2933 49.4689C48.4418 49.4373 48.5956 49.44 48.743 49.4767L59.593 52.19C59.7403 52.2267 59.8941 52.2294 60.0427 52.1978C60.1912 52.1662 60.3306 52.1012 60.4503 52.0077C60.5699 51.9142 60.6667 51.7947 60.7333 51.6582C60.7999 51.5217 60.8346 51.3719 60.8346 51.22V49.72C60.8344 49.5506 60.7912 49.3841 60.709 49.236C60.6267 49.0879 60.5083 48.9631 60.3646 48.8733L47.9713 41.1267C47.8274 41.0367 47.7088 40.9117 47.6266 40.7633C47.5444 40.6149 47.5012 40.448 47.5013 40.2783V32.5C47.5013 31.837 47.2379 31.2011 46.7691 30.7322C46.3002 30.2634 45.6643 30 45.0013 30C44.3383 30 43.7024 30.2634 43.2335 30.7322C42.7647 31.2011 42.5013 31.837 42.5013 32.5V32.5Z"
    stroke="black"
    stroke-width="2"
    stroke-linecap="round"
    stroke-linejoin="round"
  ></path>
</svg>

<svg width="90" height="90" viewBox="0 0 90 90" fill="none" xmlns="http://www.w3.org/2000/svg"><circle opacity=".5" cx="45" cy="45" r="45" fill="#FFE603"/><path d="M42.501 32.5v7.778a1 1 0 0 1-.47.85l-12.393 7.745a1 1 0 0 0-.47.847v1.5a1 1 0 0 0 1.243.97l10.847-2.713a1 1 0 0 1 1.243.97v4.933a1 1 0 0 1-.341.752l-3.6 3.15c-.764.67-.162 1.918.836 1.736l5.427-.985c.118-.021.239-.021.357 0l5.426.985c.999.184 1.6-1.066.837-1.735l-3.6-3.15a1 1 0 0 1-.342-.753v-4.933a1 1 0 0 1 1.242-.97l10.85 2.713a1 1 0 0 0 1.242-.97v-1.5a1 1 0 0 0-.47-.847L47.97 41.127a1 1 0 0 1-.47-.849V32.5a2.5 2.5 0 0 0-5 0v0Z" stroke="#000" stroke-width="2" stroke-linecap="round" stroke-linejoin="round"/></svg>
